X: 15394
T: Glass Too Much, The
R: jig
M: 6/8
K: Gmajor
BcA B2A|M:9/8
BcA GEE E2G|M:6/8
DEG BAG|BAA AGA|
BcA B2A|M:9/8
BcA GEE E2G|M:6/8
DEG BcA|BGG G2A:|
|:Bde ~g3|aba ged|Bde d2c|Bdd Add|
GAB AGE|DEG ~A3|cBA B2A|BdB AGA|1 BGG G2A:|2 BGG G3||

